X:195
T:Cutting Ferns
S:Various sources
Z:Nigel Gatherer
M:4/4
L:1/8
K:Am
B|A<A a2 g<e g2|e>dB>A G>AB<G|A<A a2 g<e g2|e>dB<g B<A A:|
g|e>dB>A G>AB>G|e>dB>A B2 B>g|e>dB>A G>AB>d|e>dg>B A2 A:|
<end>
<start>
